common/icons/svgs/family.svg

<svg xmlns="http://www.w3.org/2000/svg" xmlns:xlink="http://www.w3.org/1999/xlink" width="24" height="24" viewBox="0 0 24 24">
  <defs>
    <path id="family-a" d="M5.48986816,21.4362793 L5.48986816,19.3582764 L5.48986816,17.5308838 C4.86869303,16.6951904 4.55810547,16.2773438 4.55810547,16.2773438 C4.55810547,16.2773438 4.10135905,16.0489909 3.18786621,15.5922852 C2.25109863,15.2022298 1.78271484,15.0072021 1.78271484,15.0072021 C1.78271484,15.0072021 2.02132161,14.9084473 2.49853516,14.7109375 L3.00854492,14.1170654 L4.02868652,13.1374512 L4.55810547,11.8084717 L4.02868652,10.6348877 C3.34859212,9.72139486 3.00854492,9.26464844 3.00854492,9.26464844 C3.00854492,9.26464844 2.36824544,9.04801432 1.08764648,8.61474609 L0.875732422,6.87438965 L2.1842041,3.19055176 L5.9329834,0.505859375 L10.1485596,0.505859375 C12.7211507,2.46801758 14.0074463,3.52018229 14.0074463,3.66235352 C14.0074463,3.74807457 14.1213379,6.26182783 14.3491211,11.2036133 C15.5503743,12.865804 16.151001,13.6968994 16.151001,13.6968994 C16.151001,13.6968994 16.5410563,14.8876139 17.321167,17.269043 L16.9061279,20.2243652 L14.0074463,21.4362793 L8.18994141,21.4362793 L5.48986816,21.4362793 Z"/>
  </defs>
  <g fill="none" fill-rule="evenodd">
    <g stroke="#010101" transform="translate(1 8)">
      <circle cx="6" cy="4.8" r="3.2" stroke-width="1.6"/>
      <path stroke-width="1.75" d="M1.14061292,10.8796971 C1.05591465,11.0224832 1.00386754,11.182245 0.988206653,11.3475077 L0.877548602,12.5154341 C0.875850482,12.5333536 0.875,12.5513434 0.875,12.5693432 C0.875,12.8849343 1.13083716,13.1407715 1.44642828,13.1407715 L10.266474,13.1407715 C10.2844738,13.1407715 10.3024636,13.139921 10.3203831,13.1382229 C10.6345667,13.1084497 10.8651269,12.8296177 10.8353537,12.5154341 L10.7246712,11.3474492 C10.7090089,11.1821712 10.6569623,11.0224207 10.572245,10.8796223 C9.51128378,9.09108012 7.975212,8.225 5.85645115,8.225 C3.73766166,8.225 2.20157592,9.09110364 1.14061292,10.8796971 Z"/>
    </g>
    <g transform="translate(6 1)">
      <mask id="family-b" fill="#fff">
        <use xlink:href="#family-a"/>
      </mask>
      <path fill="#000" fill-rule="nonzero" d="M11.9160776,11.472136 C13.770297,9.81367174 14.4087768,7.1830046 13.5211118,4.85906746 C12.6334468,2.53513032 10.4037739,1 7.91607762,1 C5.4283813,1 3.19870847,2.53513032 2.31104347,4.85906746 C1.42337847,7.1830046 2.06185826,9.81367174 3.91607762,11.472136 C0.346077621,12.472136 -0.703922379,14.872136 -0.983922379,17.702136 C-1.07201639,18.549976 -0.795281769,19.3952616 -0.222842926,20.0268525 C0.349595917,20.6584433 1.16368545,21.0167003 2.01607762,21.012136 L13.8360776,21.012136 C14.6884698,21.0167003 15.5025593,20.6584433 16.0749982,20.0268525 C16.647437,19.3952616 16.9241716,18.549976 16.8360776,17.702136 C16.5560776,14.872136 15.4960776,12.442136 11.9160776,11.472136 L11.9160776,11.472136 Z M3.92607762,7.00213595 C3.92607762,4.79299696 5.71693862,3.00213595 7.92607762,3.00213595 C10.1352166,3.00213595 11.9260776,4.79299696 11.9260776,7.00213595 C11.9260776,9.21127495 10.1352166,11.002136 7.92607762,11.002136 C5.71693862,11.002136 3.92607762,9.21127495 3.92607762,7.00213595 L3.92607762,7.00213595 Z M14.6060776,18.672136 C14.4100761,18.8895253 14.1286709,19.0101275 13.8360776,19.002136 L2.01607762,19.002136 C1.73065416,19.0038686 1.45809321,18.8835513 1.26704593,18.6714888 C1.07599866,18.4594264 0.984675203,18.175832 1.01607762,17.892136 C1.27607762,15.312136 2.01607762,13.002136 7.92607762,13.002136 C13.8360776,13.002136 14.5960776,15.312136 14.8660776,17.892136 C14.8952474,18.1773875 14.8005643,18.4614366 14.6060776,18.672136 L14.6060776,18.672136 Z" mask="url(#family-b)"/>
    </g>
  </g>
</svg>

<svg xmlns="http://www.w3.org/2000/svg" xmlns:xlink="http://www.w3.org/1999/xlink" viewbox="0 0 24 24"><defs><path id="a" d="M5.49 21.436v-3.905l-.932-1.254-1.37-.685-1.405-.585.716-.296.51-.594 1.02-.98.53-1.329-.53-1.173-1.02-1.37-1.921-.65-.212-1.74L2.184 3.19 5.933.506h4.216c2.572 1.962 3.858 3.014 3.858 3.156 0 .086.114 2.6.342 7.542l1.802 2.493 1.17 3.572-.415 2.955-2.899 1.212H5.49z"/></defs><g stroke="#010101" transform="translate(1 8)"><circle cx="6" cy="4.8" r="3.2" stroke-width="1.6"/><path stroke-width="1.75" d="M1.14 10.88a1.125 1.125 0 0 0-.152.468l-.11 1.167a.571.571 0 0 0 .568.626h8.82a.571.571 0 0 0 .57-.626l-.111-1.168a1.125 1.125 0 0 0-.153-.467C9.512 9.09 7.975 8.225 5.856 8.225c-2.118 0-3.654.866-4.715 2.655z"/></g><g transform="translate(6 1)"><mask id="b" class="icon__shape"><use xlink:href="#a"/></mask><path class="icon__shape" fill-rule="nonzero" d="M11.916 11.472a6 6 0 1 0-8 0c-3.57 1-4.62 3.4-4.9 6.23a3 3 0 0 0 3 3.31h11.82a3 3 0 0 0 3-3.31c-.28-2.83-1.34-5.26-4.92-6.23zm-7.99-4.47a4 4 0 1 1 8 0 4 4 0 0 1-8 0zm10.68 11.67a1 1 0 0 1-.77.33H2.016a1 1 0 0 1-1-1.11c.26-2.58 1-4.89 6.91-4.89s6.67 2.31 6.94 4.89a1 1 0 0 1-.26.78z" mask="url(#b)"/></g></svg>
